picto/tracks-62-fr-small.svg

<svg class="color-immutable" width="24" height="24" viewBox="0 0 24 24" fill="none" xmlns="http://www.w3.org/2000/svg"><path d="M0 22.5V1.5C0 0.675 0.675 0 1.5 0H22.5C23.325 0 24 0.675 24 1.5V22.5C24 23.325 23.325 24 22.5 24H1.5C0.675 24 0 23.325 0 22.5Z" fill="#2D327D"/><path d="M11.083 12.564H8.94499C8.74499 11.698 8.25299 11.264 7.46799 11.264C6.63699 11.264 6.04799 11.774 5.69899 12.794C5.55499 13.209 5.43999 13.837 5.35299 14.678C5.69099 14.222 6.05199 13.894 6.43399 13.694C6.81599 13.494 7.27599 13.394 7.81399 13.394C8.86999 13.394 9.71899 13.768 10.36 14.517C10.97 15.225 11.275 16.112 11.275 17.178C11.275 18.444 10.865 19.462 10.045 20.231C9.30699 20.923 8.41999 21.269 7.38399 21.269C6.05599 21.269 5.02299 20.768 4.28499 19.766C3.54699 18.764 3.17799 17.365 3.17799 15.571C3.17799 13.654 3.57299 12.151 4.36199 11.064C5.12599 10.013 6.16899 9.487 7.49199 9.487C8.73799 9.487 9.69099 9.905 10.353 10.741C10.732 11.223 10.976 11.83 11.083 12.564ZM7.27699 15.14C6.73899 15.14 6.31099 15.366 5.99299 15.817C5.70599 16.217 5.56199 16.694 5.56199 17.247C5.56199 17.796 5.70799 18.275 5.99999 18.685C6.31799 19.141 6.75399 19.369 7.30699 19.369C7.84499 19.369 8.27899 19.151 8.60699 18.715C8.91499 18.305 9.06799 17.82 9.06799 17.262C9.06799 16.713 8.92999 16.244 8.65299 15.855C8.31499 15.378 7.85599 15.14 7.27699 15.14Z" fill="white"/><path d="M20.822 19.001V21.001H12.724C12.724 20.391 12.823 19.809 13.02 19.255C13.217 18.701 13.495 18.224 13.854 17.825C14.131 17.517 14.455 17.217 14.827 16.925C15.199 16.633 15.938 16.097 17.046 15.318C17.584 14.944 17.961 14.595 18.176 14.272C18.391 13.949 18.499 13.575 18.499 13.149C18.499 12.657 18.354 12.258 18.065 11.953C17.775 11.648 17.395 11.495 16.923 11.495C15.764 11.495 15.167 12.328 15.131 13.994H12.97C12.97 13.886 12.97 13.804 12.97 13.748C12.97 12.384 13.352 11.328 14.116 10.58C14.86 9.851 15.821 9.487 17 9.487C18.046 9.487 18.92 9.784 19.622 10.379C20.386 11.025 20.768 11.894 20.768 12.986C20.768 13.94 20.463 14.76 19.853 15.447C19.653 15.673 19.466 15.853 19.292 15.989C19.118 16.125 18.659 16.452 17.915 16.97C17.207 17.462 16.701 17.839 16.396 18.1C16.091 18.361 15.808 18.661 15.546 19H20.822V19.001Z" fill="white"/><path d="M5.036 3L4.288 5.249H3.73L2.993 3H3.507L4.013 4.684L4.527 3H5.036Z" fill="white"/><path d="M5.87399 3.523C6.11799 3.523 6.31699 3.604 6.47199 3.766C6.62499 3.926 6.70099 4.139 6.70099 4.406C6.70099 4.682 6.61899 4.902 6.45599 5.066C6.30399 5.218 6.10499 5.295 5.85999 5.295C5.59899 5.295 5.38999 5.21 5.23599 5.04C5.08799 4.877 5.01399 4.667 5.01399 4.409C5.01399 4.155 5.08599 3.948 5.22899 3.789C5.38899 3.612 5.60299 3.523 5.87399 3.523ZM5.85099 3.871C5.73299 3.871 5.63899 3.919 5.56999 4.014C5.49899 4.11 5.46299 4.242 5.46299 4.409C5.46299 4.582 5.49799 4.715 5.56799 4.807C5.63999 4.9 5.73799 4.947 5.86199 4.947C5.97799 4.947 6.06999 4.904 6.13699 4.819C6.21399 4.725 6.25199 4.588 6.25199 4.408C6.25199 4.24 6.21799 4.109 6.14999 4.016C6.07999 3.919 5.97999 3.871 5.85099 3.871Z" fill="white"/><path d="M7.44899 3V3.401H7.00299V3H7.44899ZM7.44899 3.572V5.249H7.00299V3.572H7.44899Z" fill="white"/><path d="M9.32099 4.726C9.29699 4.82 9.25499 4.909 9.19299 4.992C9.04499 5.194 8.83299 5.295 8.55599 5.295C8.30599 5.295 8.10499 5.216 7.95499 5.058C7.88099 4.981 7.82499 4.888 7.78599 4.78C7.74399 4.664 7.72299 4.543 7.72299 4.417C7.72299 4.173 7.79299 3.968 7.93399 3.802C8.09099 3.616 8.29399 3.524 8.54299 3.524C8.74399 3.524 8.91499 3.586 9.05699 3.71C9.15899 3.799 9.23199 3.909 9.27799 4.04C9.32399 4.171 9.34699 4.335 9.34699 4.533H8.17699C8.18099 4.615 8.19399 4.683 8.21499 4.738C8.27499 4.885 8.38999 4.958 8.55999 4.958C8.64299 4.958 8.71099 4.94 8.76299 4.903C8.81499 4.867 8.85799 4.808 8.89199 4.727H9.32099V4.726ZM8.89199 4.232C8.88399 4.151 8.86499 4.084 8.83599 4.031C8.80799 3.978 8.76699 3.937 8.71399 3.906C8.66099 3.875 8.60399 3.86 8.54099 3.86C8.44199 3.86 8.35999 3.893 8.29499 3.96C8.22999 4.026 8.19199 4.117 8.17999 4.232H8.89199Z" fill="white"/></svg>

<svg class="color-immutable" width="24" height="24" viewBox="0 0 24 24" fill="none" xmlns="http://www.w3.org/2000/svg"><g clip-path="url(#a)"><path d="M0 22.5v-21C0 .675.675 0 1.5 0h21c.825 0 1.5.675 1.5 1.5v21c0 .825-.675 1.5-1.5 1.5h-21C.675 24 0 23.325 0 22.5Z" fill="#2D327D"/><path d="M11.083 12.564H8.945c-.2-.866-.692-1.3-1.477-1.3-.831 0-1.42.51-1.769 1.53-.144.415-.259 1.043-.346 1.884.338-.456.699-.784 1.081-.984.382-.2.842-.3 1.38-.3 1.056 0 1.905.374 2.546 1.123.61.708.915 1.595.915 2.661 0 1.266-.41 2.284-1.23 3.053-.738.692-1.625 1.038-2.661 1.038-1.328 0-2.361-.501-3.099-1.503-.738-1.002-1.107-2.401-1.107-4.195 0-1.917.395-3.42 1.184-4.507.764-1.051 1.807-1.577 3.13-1.577 1.246 0 2.199.418 2.861 1.254.379.482.623 1.089.73 1.823ZM7.277 15.14c-.538 0-.966.226-1.284.677-.287.4-.431.877-.431 1.43 0 .549.146 1.028.438 1.438a1.51 1.51 0 0 0 1.307.684 1.55 1.55 0 0 0 1.3-.654c.308-.41.461-.895.461-1.453 0-.549-.138-1.018-.415-1.407-.338-.477-.797-.715-1.376-.715ZM20.822 19.001v2h-8.098c0-.61.099-1.192.296-1.746a4.228 4.228 0 0 1 .834-1.43c.277-.308.601-.608.973-.9.372-.292 1.111-.828 2.219-1.607.538-.374.915-.723 1.13-1.046.215-.323.323-.697.323-1.123 0-.492-.145-.891-.434-1.196-.29-.305-.67-.458-1.142-.458-1.159 0-1.756.833-1.792 2.499H12.97v-.246c0-1.364.382-2.42 1.146-3.168.744-.729 1.705-1.093 2.884-1.093 1.046 0 1.92.297 2.622.892.764.646 1.146 1.515 1.146 2.607 0 .954-.305 1.774-.915 2.461a4.33 4.33 0 0 1-.561.542c-.174.136-.633.463-1.377.981-.708.492-1.214.869-1.519 1.13a6.037 6.037 0 0 0-.85.9h5.276v.001ZM5.036 3l-.748 2.249H3.73L2.993 3h.514l.506 1.684L4.527 3h.509ZM5.874 3.523a.79.79 0 0 1 .598.243c.153.16.229.373.229.64 0 .276-.082.496-.245.66a.807.807 0 0 1-.596.229c-.261 0-.47-.085-.624-.255-.148-.163-.222-.373-.222-.631 0-.254.072-.461.215-.62.16-.177.374-.266.645-.266Zm-.023.348a.33.33 0 0 0-.281.143.652.652 0 0 0-.107.395c0 .173.035.306.105.398.072.093.17.14.294.14a.332.332 0 0 0 .275-.128c.077-.094.115-.231.115-.411 0-.168-.034-.299-.102-.392a.347.347 0 0 0-.299-.145ZM7.449 3v.401h-.446V3h.446Zm0 .572v1.677h-.446V3.572h.446ZM9.321 4.726a.752.752 0 0 1-.128.266c-.148.202-.36.303-.637.303-.25 0-.451-.079-.601-.237a.775.775 0 0 1-.169-.278 1.058 1.058 0 0 1-.063-.363c0-.244.07-.449.211-.615a.76.76 0 0 1 .609-.278.754.754 0 0 1 .735.516c.046.131.069.295.069.493h-1.17c.004.082.017.15.038.205.06.147.175.22.345.22a.343.343 0 0 0 .203-.055.39.39 0 0 0 .129-.176h.429v-.001Zm-.429-.494a.525.525 0 0 0-.056-.201.334.334 0 0 0-.295-.171.328.328 0 0 0-.246.1.44.44 0 0 0-.115.272h.712Z" fill="#fff"/></g><defs><clipPath id="a"><path fill="#fff" d="M0 0h24v24H0z"/></clipPath></defs></svg>
